X: 16696
T: Happy Farmer, The
R: jig
M: 6/8
K: Gmajor
dBc ded|dcB c3|cAB cdc|cBA B2d|
g2d g2d|gfe d2c|BAG A2F|G3 G3:|

